assets/ios/swift/Icons.xcassets/unknownSolid.imageset/unknownSolid.svg

<svg width="24" height="24" viewBox="0 0 24 24" fill="none" xmlns="http://www.w3.org/2000/svg">
<path d="M12.9986 13.0115C12.9986 13.0115 12.9992 13.0101 12.9996 13.0074L12.9986 13.0115Z" fill="black"/>
<path d="M3.5875 20.4125C3.97917 20.8042 4.45 21 5 21H19C19.55 21 20.0208 20.8042 20.4125 20.4125C20.8042 20.0208 21 19.55 21 19V5C21 4.45 20.8042 3.97917 20.4125 3.5875C20.0208 3.19583 19.55 3 19 3H5C4.45 3 3.97917 3.19583 3.5875 3.5875C3.19583 3.97917 3 4.45 3 5V19C3 19.55 3.19583 20.0208 3.5875 20.4125ZM12 9C11.4477 9 11 9.44772 11 10C11 10.5523 10.5523 11 10 11C9.44772 11 9 10.5523 9 10C9 8.34315 10.3431 7 12 7C13.6569 7 15 8.34315 15 10C15 11.137 14.3671 12.1247 13.4391 12.6327C13.265 12.7281 13.1336 12.8316 13.0569 12.9211C13.017 12.9676 13.0038 12.9954 13 13.0062C12.9966 13.5556 12.5502 14 12 14C11.4477 14 11 13.5523 11 13C11 12.4196 11.2528 11.9526 11.5387 11.6191C11.8204 11.2907 12.1685 11.0482 12.4788 10.8784C12.7915 10.7072 13 10.3772 13 10C13 9.44772 12.5523 9 12 9ZM13 16C13 16.5523 12.5523 17 12 17C11.4477 17 11 16.5523 11 16C11 15.4477 11.4477 15 12 15C12.5523 15 13 15.4477 13 16Z" fill="black"/>
</svg>

<svg xmlns="http://www.w3.org/2000/svg" width="24" height="24" fill="black" viewBox="0 0 24 24">
  <path d="M12.999 13.011v-.004.005Zm-9.412 7.402C3.98 20.803 4.45 21 5 21h14c.55 0 1.02-.196 1.413-.587A1.93 1.93 0 0 0 21 19V5c0-.55-.196-1.02-.587-1.413A1.926 1.926 0 0 0 19 3H5c-.55 0-1.02.196-1.413.587A1.926 1.926 0 0 0 3 5v14c0 .55.196 1.02.587 1.413ZM12 9a1 1 0 0 0-1 1 1 1 0 1 1-2 0 3 3 0 1 1 4.44 2.633 1.404 1.404 0 0 0-.383.288.3.3 0 0 0-.057.085A1 1 0 0 1 11 13c0-.58.253-1.047.539-1.38.281-.33.63-.572.94-.742A1 1 0 0 0 12 9Zm1 7a1 1 0 1 1-2 0 1 1 0 0 1 2 0Z"/>
</svg>
